X:900
L:1/8
Q:1/8=110
M:3/4
K:A
|: AFE | [A,E]2 [CE]>[CE] [EA]2 | [AA]3 (c BG) | A2 [ce]>[ce] [ce]2 | [ee]3 (f e2) | E3 G (Bc) | 
 d2 g3 g | (3fgf e2 d2 | [ce]3 ([de]c)A | [A,E]2 [CE]>[CE] [EA]2 | [AA]3 (c B)G | 
 A2 [ce]>[ce] [ce]2 | [ee]3 (f e2) | E3 G (Bd) | c3 G (AB) | A3 G AB | A3 :: A cB | A2 ce a2 | 
 c'3 e' c'a | a2 ec Ac | [ee]3 f e2 | E3 G Bc | d2 g3 g | (3fgf e2 d2 | [ce]3 [de] cB | A2 ce a2 | 
 c'3 e' c'a | a2 ec Ac | [ee]3 f e2 | E3 G Bd | c3 G AB | A2 G2 AB | A3 :|

